Hatter-kde/actions/22/format-font-size-more.svg

<svg xmlns="http://www.w3.org/2000/svg" viewBox="0 0 22 22">
  <defs id="defs3051">
    <style type="text/css" id="current-color-scheme">
      .ColorScheme-Text {
        color:#363636;
      }
      </style>
  </defs>
 <path 
    style="fill:currentColor;fill-opacity:1;stroke:none" 
    d="M 8.2167969 3 L 3 17 L 4.6875 17 L 6.3554688 12.570312 L 11.917969 12.570312 L 12.066406 13 L 13.732422 13 L 10.210938 3 L 8.2167969 3 z M 9.2324219 4.6113281 L 11.361328 11.285156 L 6.8730469 11.285156 L 9.2324219 4.6113281 z M 15.5 12.792969 L 15.292969 13 L 12 16.292969 L 12.707031 17 L 15 14.707031 L 15 19 L 16 19 L 16 14.707031 L 18.292969 17 L 19 16.292969 L 15.707031 13 L 15.5 12.792969 z "
    class="ColorScheme-Text"
    />  
</svg>

<?xml version="1.0" encoding="UTF-8"?>
<svg viewBox="0 0 22 22" xmlns="http://www.w3.org/2000/svg">
 <defs id="defs3051">
  <style id="current-color-scheme" type="text/css">.ColorScheme-Text {
        color:#363636;
      }</style>
 </defs>
 <path class="ColorScheme-Text" d="m8.2168 3-5.2168 14h1.6875l1.668-4.4297h5.5625l0.14844 0.42969h1.666l-3.5215-10h-1.9941zm1.0156 1.6113 2.1289 6.6738h-4.4883l2.3594-6.6738zm6.2676 8.1816-3.5 3.5 0.70703 0.70703 2.293-2.293v4.293h1v-4.293l2.293 2.293 0.70703-0.70703-3.5-3.5z" fill="currentColor"/>
</svg>
